icons/1_Primary/Shakepay.svg

<svg xmlns="http://www.w3.org/2000/svg" width="1024" height="1024" fill="none">
   <g clip-path="url(#a)">
      <path fill="#9ABEFF" d="M512 1024c282.77 0 512-229.23 512-512S794.77 0 512 0 0 229.23 0 512s229.23 512 512 512Z"/>
      <path fill="#fff" d="M513.07 688.47c-21.19 0-53.48-33.14-42.28-45 11.2-11.86 74.35-11.05 84.73 0 10.38 11.05-21.26 45-42.45 45ZM739 308.36c-37-38.16-184 38.15-184 38.15h-42.86l-43.17.07s-147-76.31-184-38.15c-37 38.16-44.57 289.19-23.17 313.7 11.16 12.78 71 62.74 166.74 104.09 26.68 11.52 63.77 16 83.62 16.11 19.85.11 56.63-4.61 83.3-16.13 95.72-41.35 155.54-84.66 166.74-97.44 21.4-24.52 13.71-282.25-23.2-320.4Zm-39.93 34c25.8 15.33 34 109 26.32 110.84-7.68 1.84-120.85-67.47-123.29-76.6-2.44-9.13 71.14-49.6 96.9-34.25l.07.01Zm-374.09 0c25.8-15.33 99.38 25.13 96.95 34.25-2.43 9.12-115.59 78.39-123.29 76.61-7.7-1.78.52-95.52 26.36-110.85l-.02-.01Zm-15.81 294.8s-24.6-10.2-30.89-20.87c-10.73-18.17-8.53-48.14-5.56-50.28 7.08-5.09 89.07-50.82 132.78-75.21 13.44-7.5 23.26-13 26.18-14.64 12.4-7.06 31.34 9 37.31 21.75 5.97 12.75-.32 49.56-.32 49.56s-25.48-28.51-37-22c-11.52 6.51-111.77 63.96-122.5 70.42-10.73 6.46 0 41.27 0 41.27Zm203 85.62c-61.16 0-122.33-30.06-122.4-71-.07-40.94 61.08-71 122.16-71s122.1 30.06 122.16 71c.06 40.94-60.78 71-121.93 71h.01Zm233.56-106.51c-6.3 10.67-30.89 20.87-30.89 20.87s10.73-34.82 0-41.28c-10.73-6.46-111-63.83-122.51-70.37-11.51-6.54-37 22-37 22S549 510.67 555 497.9c6-12.77 24.91-28.81 37.31-21.75 2.92 1.66 12.74 7.14 26.18 14.64 43.72 24.38 125.7 70.11 132.78 75.21 3 2.14 5.17 32.1-5.56 50.28l.02-.01Z"/>
   </g>
   <defs>
      <clipPath id="a">
         <path fill="#fff" d="M0 0h1024v1024H0z"/>
      </clipPath>
   </defs>
</svg>

<svg width="1024" height="1024" viewBox="0 0 1024 1024" fill="none" xmlns="http://www.w3.org/2000/svg">
<g clip-path="url(#clip0_2_3450)">
<path d="M512 1024C794.77 1024 1024 794.77 1024 512C1024 229.23 794.77 0 512 0C229.23 0 0 229.23 0 512C0 794.77 229.23 1024 512 1024Z" fill="#9ABEFF"/>
<path d="M513.07 688.47C491.88 688.47 459.59 655.33 470.79 643.47C481.99 631.61 545.14 632.42 555.52 643.47C565.9 654.52 534.26 688.47 513.07 688.47ZM739 308.36C702 270.2 555 346.51 555 346.51H512.14L468.97 346.58C468.97 346.58 321.97 270.27 284.97 308.43C247.97 346.59 240.4 597.62 261.8 622.13C272.96 634.91 332.8 684.87 428.54 726.22C455.22 737.74 492.31 742.22 512.16 742.33C532.01 742.44 568.79 737.72 595.46 726.2C691.18 684.85 751 641.54 762.2 628.76C783.6 604.24 775.91 346.51 739 308.36ZM699.07 342.36C724.87 357.69 733.07 451.36 725.39 453.2C717.71 455.04 604.54 385.73 602.1 376.6C599.66 367.47 673.24 327 699 342.35L699.07 342.36ZM324.98 342.36C350.78 327.03 424.36 367.49 421.93 376.61C419.5 385.73 306.34 455 298.64 453.22C290.94 451.44 299.16 357.7 325 342.37L324.98 342.36ZM309.17 637.16C309.17 637.16 284.57 626.96 278.28 616.29C267.55 598.12 269.75 568.15 272.72 566.01C279.8 560.92 361.79 515.19 405.5 490.8C418.94 483.3 428.76 477.8 431.68 476.16C444.08 469.1 463.02 485.16 468.99 497.91C474.96 510.66 468.67 547.47 468.67 547.47C468.67 547.47 443.19 518.96 431.67 525.47C420.15 531.98 319.9 589.43 309.17 595.89C298.44 602.35 309.17 637.16 309.17 637.16ZM512.17 722.78C451.01 722.78 389.84 692.72 389.77 651.78C389.7 610.84 450.85 580.78 511.93 580.78C573.01 580.78 634.03 610.84 634.09 651.78C634.15 692.72 573.31 722.78 512.16 722.78H512.17ZM745.73 616.27C739.43 626.94 714.84 637.14 714.84 637.14C714.84 637.14 725.57 602.32 714.84 595.86C704.11 589.4 603.84 532.03 592.33 525.49C580.82 518.95 555.33 547.49 555.33 547.49C555.33 547.49 549 510.67 555 497.9C561 485.13 579.91 469.09 592.31 476.15C595.23 477.81 605.05 483.29 618.49 490.79C662.21 515.17 744.19 560.9 751.27 566C754.27 568.14 756.44 598.1 745.71 616.28L745.73 616.27Z" fill="white"/>
</g>
<defs>
<clipPath id="clip0_2_3450">
<rect width="1024" height="1024" fill="white"/>
</clipPath>
</defs>
</svg>
